X:1
T:Title
%%score { 1 | 2 }
L:1/8
M:3/4
K:G
V:1 treble nm="Grand Piano"
V:2 treble 
V:1
 z2 z[Q:1/4=90] d dc | B3 [GB] [FA]G | D3 D [FA][GB] | [Fc]3 A Be |[M:3/8] [Fd]3 | ddc | %6
[M:3/4] B3 [GB] [FA]G | D3 D FG | [CFA][EFc] [DGB]2 [CFA]2 |[M:3/8] G3 | ddB | %11
[M:3/4] d3 [GB] [FA]G | D3 D FG | A3 [DF] [DG][DA] |[M:3/8] [DB]3 | ddB | %16
[M:3/4] d3 [DGB] [CGc][Gd] | [Ge]3 [EGA] [DGB][CFc] | [B,Gd][DG] [DFB]2 [CFA]2 |[M:3/8] [B,DG]3 |] %20
V:2
 z2 z [G,B,G] [G,B,G][G,EG] | [G,DG]3[K:bass] [D,D] [D,C][D,B,D] | [G,B,]3 [G,B,] [D,D][D,D] | %3
 [D,D]3 [F,D][K:treble] [G,DG][A,^CG] |[M:3/8] [D,D]3 | [G,B,G][G,B,G][G,EG] | %6
[M:3/4] [G,DG]3[K:bass] [D,D] [D,C][D,B,D] | [G,B,]3 [G,B,] [D,A,D][D,B,D] | D,D, D,2 D,2 | %9
[M:3/8][K:treble] [G,B,D]3 | [G,B,G][G,B,G][G,DG] |[M:3/4] [G,B,G]3[K:bass] [D,D] [D,C][D,B,D] | %12
 [G,B,]3 [G,B,] [D,A,D][D,B,D] | [D,CD]3 [C,A,] [B,,G,][A,,F,] |[M:3/8] [G,,G,]3 | %15
 [G,B,G][G,B,G][G,DG] |[M:3/4] [G,B,G]3 G,/[K:bass]=F,/ E,[D,B,] | [C,C]3 C, B,,A,, | %18
 G,,B,, D,2 D,2 |[M:3/8] G,3 |] %20

